packages/tokens/icons/map2/size16Px.svg

<svg viewBox="0 0 16 16" fill="none" xmlns="http://www.w3.org/2000/svg" width="1em" height="1em"><path d="M12.5 6C12.5 6.50625 12.3463 7.14803 12.0672 7.88156C11.7907 8.60825 11.4043 9.39176 10.9689 10.1714C10.0982 11.7307 9.05169 13.2395 8.35724 14.1923C8.17596 14.441 7.82404 14.441 7.64276 14.1923C6.94831 13.2395 5.90182 11.7307 5.03112 10.1714C4.59574 9.39176 4.2093 8.60825 3.93283 7.88156C3.65375 7.14803 3.5 6.50625 3.5 6C3.5 4.54665 4.01202 3.43243 4.80798 2.67985C5.6083 1.92314 6.73004 1.5 8 1.5C9.26996 1.5 10.3917 1.92314 11.192 2.67985C11.988 3.43243 12.5 4.54665 12.5 6Z" stroke="currentColor"/><circle cx="8" cy="6" r="1.5" stroke="currentColor"/></svg>

<svg xmlns="http://www.w3.org/2000/svg" fill="none" viewBox="0 0 16 16" width="1em" height="1em"><path stroke="currentColor" d="M12.5 6c0 .506-.154 1.148-.433 1.882-.276.726-.663 1.51-1.098 2.29-.87 1.559-1.917 3.067-2.612 4.02a.435.435 0 0 1-.714 0c-.695-.953-1.741-2.461-2.612-4.02-.435-.78-.822-1.564-1.098-2.29C3.653 7.148 3.5 6.506 3.5 6c0-1.453.512-2.568 1.308-3.32C5.608 1.923 6.73 1.5 8 1.5c1.27 0 2.392.423 3.192 1.18.796.752 1.308 1.867 1.308 3.32Z"/><circle cx="8" cy="6" r="1.5" stroke="currentColor"/></svg>
